images/portal/4141.svg

<?xml version="1.0" standalone="no"?><!DOCTYPE svg PUBLIC "-//W3C//DTD SVG 1.1//EN" "http://www.w3.org/Graphics/SVG/1.1/DTD/svg11.dtd"><svg xmlns:xlink="http://www.w3.org/1999/xlink" version="1.1" class="highcharts-root" style="font-family:arial;font-size:12px;" xmlns="http://www.w3.org/2000/svg" width="485" height="415"><desc>Created with Highstock 5.0.14</desc><defs><clipPath id="highcharts-uksp4gk-6"><rect x="0" y="0" width="252" height="309" fill="none"></rect></clipPath><clipPath id="highcharts-uksp4gk-7"><rect x="0" y="0" width="252" height="309" fill="none"></rect></clipPath></defs><rect fill="#fbfbfb" class="highcharts-background" x="0" y="0" width="485" height="415" rx="0" ry="0"></rect><rect fill="none" class="highcharts-plot-background" x="53" y="55" width="252" height="309"></rect><g class="highcharts-pane-group"></g><g class="highcharts-grid highcharts-xaxis-grid "><path fill="none" class="highcharts-grid-line" d="M 94.5 55 L 94.5 364" opacity="1"></path><path fill="none" class="highcharts-grid-line" d="M 136.5 55 L 136.5 364" opacity="1"></path><path fill="none" class="highcharts-grid-line" d="M 178.5 55 L 178.5 364" opacity="1"></path><path fill="none" class="highcharts-grid-line" d="M 220.5 55 L 220.5 364" opacity="1"></path><path fill="none" class="highcharts-grid-line" d="M 262.5 55 L 262.5 364" opacity="1"></path><path fill="none" class="highcharts-grid-line" d="M 304.5 55 L 304.5 364" opacity="1"></path><path fill="none" class="highcharts-grid-line" d="M 52.5 55 L 52.5 364" opacity="1"></path></g><g class="highcharts-grid highcharts-yaxis-grid "><path fill="none" stroke="#B9CFD7" stroke-width="0.5" class="highcharts-grid-line" d="M 53 364.25 L 305 364.25" opacity="1"></path><path fill="none" stroke="#B9CFD7" stroke-width="0.5" class="highcharts-grid-line" d="M 53 333.25 L 305 333.25" opacity="1"></path><path fill="none" stroke="#B9CFD7" stroke-width="0.5" class="highcharts-grid-line" d="M 53 302.25 L 305 302.25" opacity="1"></path><path fill="none" stroke="#B9CFD7" stroke-width="0.5" class="highcharts-grid-line" d="M 53 271.25 L 305 271.25" opacity="1"></path><path fill="none" stroke="#B9CFD7" stroke-width="0.5" class="highcharts-grid-line" d="M 53 240.25 L 305 240.25" opacity="1"></path><path fill="none" stroke="#B9CFD7" stroke-width="0.5" class="highcharts-grid-line" d="M 53 210.25 L 305 210.25" opacity="1"></path><path fill="none" stroke="#B9CFD7" stroke-width="0.5" class="highcharts-grid-line" d="M 53 179.25 L 305 179.25" opacity="1"></path><path fill="none" stroke="#B9CFD7" stroke-width="0.5" class="highcharts-grid-line" d="M 53 148.25 L 305 148.25" opacity="1"></path><path fill="none" stroke="#B9CFD7" stroke-width="0.5" class="highcharts-grid-line" d="M 53 117.25 L 305 117.25" opacity="1"></path><path fill="none" stroke="#B9CFD7" stroke-width="0.5" class="highcharts-grid-line" d="M 53 86.25 L 305 86.25" opacity="1"></path><path fill="none" stroke="#B9CFD7" stroke-width="0.5" class="highcharts-grid-line" d="M 53 54.75 L 305 54.75" opacity="1"></path></g><rect fill="none" class="highcharts-plot-border" x="53" y="55" width="252" height="309"></rect><g class="highcharts-axis highcharts-xaxis "><path fill="none" class="highcharts-tick" stroke="#FFFFFF" stroke-width="1" d="M 94.5 364 L 94.5 374" opacity="1"></path><path fill="none" class="highcharts-tick" stroke="#FFFFFF" stroke-width="1" d="M 136.5 364 L 136.5 374" opacity="1"></path><path fill="none" class="highcharts-tick" stroke="#FFFFFF" stroke-width="1" d="M 178.5 364 L 178.5 374" opacity="1"></path><path fill="none" class="highcharts-tick" stroke="#FFFFFF" stroke-width="1" d="M 220.5 364 L 220.5 374" opacity="1"></path><path fill="none" class="highcharts-tick" stroke="#FFFFFF" stroke-width="1" d="M 262.5 364 L 262.5 374" opacity="1"></path><path fill="none" class="highcharts-tick" stroke="#FFFFFF" stroke-width="1" d="M 305.5 364 L 305.5 374" opacity="1"></path><path fill="none" class="highcharts-tick" stroke="#FFFFFF" stroke-width="1" d="M 52.5 364 L 52.5 374" opacity="1"></path><path fill="none" class="highcharts-axis-line" stroke="#B9CFD7" stroke-width="0.5" d="M 53 364.25 L 305 364.25"></path></g><g class="highcharts-axis highcharts-yaxis "><path fill="none" class="highcharts-axis-line" d="M 53 55 L 53 364"></path></g><g class="highcharts-series-group"><g class="highcharts-series highcharts-series-0 highcharts-column-series highcharts-color-undefined " transform="translate(53,55) scale(1 1)" clip-path="url(#highcharts-uksp4gk-7)"><rect x="11" y="0" width="21" height="148" fill="#2f656b" class="highcharts-point"></rect><rect x="53" y="0" width="21" height="150" fill="#2f656b" class="highcharts-point"></rect><rect x="95" y="0" width="21" height="149" fill="#2f656b" class="highcharts-point"></rect><rect x="137" y="0" width="21" height="147" fill="#2f656b" class="highcharts-point"></rect><rect x="179" y="0" width="21" height="146" fill="#2f656b" class="highcharts-point"></rect><rect x="221" y="0" width="21" height="145" fill="#2f656b" class="highcharts-point"></rect></g><g class="highcharts-markers highcharts-series-0 highcharts-column-series highcharts-color-undefined " transform="translate(53,55) scale(1 1)" clip-path="none"></g><g class="highcharts-series highcharts-series-1 highcharts-column-series highcharts-color-undefined " transform="translate(53,55) scale(1 1)" clip-path="url(#highcharts-uksp4gk-7)"><rect x="11" y="148" width="21" height="128" fill="#73b97c" class="highcharts-point"></rect><rect x="53" y="150" width="21" height="123" fill="#73b97c" class="highcharts-point"></rect><rect x="95" y="149" width="21" height="127" fill="#73b97c" class="highcharts-point"></rect><rect x="137" y="147" width="21" height="124" fill="#73b97c" class="highcharts-point"></rect><rect x="179" y="146" width="21" height="120" fill="#73b97c" class="highcharts-point"></rect><rect x="221" y="145" width="21" height="126" fill="#73b97c" class="highcharts-point"></rect></g><g class="highcharts-markers highcharts-series-1 highcharts-column-series highcharts-color-undefined " transform="translate(53,55) scale(1 1)" clip-path="none"></g><g class="highcharts-series highcharts-series-2 highcharts-column-series highcharts-color-undefined " transform="translate(53,55) scale(1 1)" clip-path="url(#highcharts-uksp4gk-7)"><rect x="11" y="276" width="21" height="34" fill="#cd9c00" class="highcharts-point"></rect><rect x="53" y="273" width="21" height="37" fill="#cd9c00" class="highcharts-point"></rect><rect x="95" y="276" width="21" height="34" fill="#cd9c00" class="highcharts-point"></rect><rect x="137" y="271" width="21" height="39" fill="#cd9c00" class="highcharts-point"></rect><rect x="179" y="266" width="21" height="44" fill="#cd9c00" class="highcharts-point"></rect><rect x="221" y="271" width="21" height="39" fill="#cd9c00" class="highcharts-point"></rect></g><g class="highcharts-markers highcharts-series-2 highcharts-column-series highcharts-color-undefined " transform="translate(53,55) scale(1 1)" clip-path="none"></g></g><text x="10" text-anchor="start" class="highcharts-title" style="color:#000000;font-size:14px;font-weight:bold;fill:#000000;" y="21"><tspan>Anteile der Haushalte</tspan></text><text x="10" text-anchor="start" class="highcharts-subtitle" style="color:#000000;font-size:12px;font-weight:normal;font-family:arial;fill:#000000;" y="40"><tspan>nach Art des Haushalts</tspan></text><g class="highcharts-legend" transform="translate(317,164)"><rect fill="none" class="highcharts-legend-box" rx="0" ry="0" x="0" y="0" width="157" height="68" visibility="visible"></rect><g><g><g class="highcharts-legend-item highcharts-column-series highcharts-color-undefined highcharts-series-0" transform="translate(8,3)"><text x="21" style="color:#333333;font-size:12px;font-weight:normal;cursor:pointer;fill:#333333;" text-anchor="start" y="15"><tspan>Einpersonenhaushalte</tspan></text><rect x="2" y="4" width="12" height="12" fill="#2f656b" class="highcharts-point"></rect></g><g class="highcharts-legend-item highcharts-column-series highcharts-color-undefined highcharts-series-1" transform="translate(8,22)"><text x="21" y="15" style="color:#333333;font-size:12px;font-weight:normal;cursor:pointer;fill:#333333;" text-anchor="start"><tspan>Familienhaushalte</tspan></text><rect x="2" y="4" width="12" height="12" fill="#73b97c" class="highcharts-point"></rect></g><g class="highcharts-legend-item highcharts-column-series highcharts-color-undefined highcharts-series-2" transform="translate(8,41)"><text x="21" y="15" style="color:#333333;font-size:12px;font-weight:normal;cursor:pointer;fill:#333333;" text-anchor="start"><tspan>Nichtfamilienhaushalte</tspan></text><rect x="2" y="4" width="12" height="12" fill="#cd9c00" class="highcharts-point"></rect></g></g></g></g><g class="highcharts-axis-labels highcharts-xaxis-labels "><text x="74" style="color:#000000;cursor:default;font-size:11px;fill:#000000;" text-anchor="middle" transform="translate(0,0)" y="383" opacity="1">2011</text><text x="116" style="color:#000000;cursor:default;font-size:11px;fill:#000000;" text-anchor="middle" transform="translate(0,0)" y="383" opacity="1">2012</text><text x="158" style="color:#000000;cursor:default;font-size:11px;fill:#000000;" text-anchor="middle" transform="translate(0,0)" y="383" opacity="1">2013</text><text x="200" style="color:#000000;cursor:default;font-size:11px;fill:#000000;" text-anchor="middle" transform="translate(0,0)" y="383" opacity="1">2014</text><text x="242" style="color:#000000;cursor:default;font-size:11px;fill:#000000;" text-anchor="middle" transform="translate(0,0)" y="383" opacity="1">2015</text><text x="284" style="color:#000000;cursor:default;font-size:11px;fill:#000000;" text-anchor="middle" transform="translate(0,0)" y="383" opacity="1">2016</text></g><g class="highcharts-axis-labels highcharts-yaxis-labels "><text x="38" style="color:#000000;cursor:default;font-size:11px;fill:#000000;" text-anchor="end" transform="translate(0,0)" y="369" opacity="1"><tspan>0%</tspan></text><text x="38" style="color:#000000;cursor:default;font-size:11px;fill:#000000;" text-anchor="end" transform="translate(0,0)" y="338" opacity="1"><tspan>10%</tspan></text><text x="38" style="color:#000000;cursor:default;font-size:11px;fill:#000000;" text-anchor="end" transform="translate(0,0)" y="307" opacity="1"><tspan>20%</tspan></text><text x="38" style="color:#000000;cursor:default;font-size:11px;fill:#000000;" text-anchor="end" transform="translate(0,0)" y="276" opacity="1"><tspan>30%</tspan></text><text x="38" style="color:#000000;cursor:default;font-size:11px;fill:#000000;" text-anchor="end" transform="translate(0,0)" y="245" opacity="1"><tspan>40%</tspan></text><text x="38" style="color:#000000;cursor:default;font-size:11px;fill:#000000;" text-anchor="end" transform="translate(0,0)" y="214" opacity="1"><tspan>50%</tspan></text><text x="38" style="color:#000000;cursor:default;font-size:11px;fill:#000000;" text-anchor="end" transform="translate(0,0)" y="183" opacity="1"><tspan>60%</tspan></text><text x="38" style="color:#000000;cursor:default;font-size:11px;fill:#000000;" text-anchor="end" transform="translate(0,0)" y="152" opacity="1"><tspan>70%</tspan></text><text x="38" style="color:#000000;cursor:default;font-size:11px;fill:#000000;" text-anchor="end" transform="translate(0,0)" y="121" opacity="1"><tspan>80%</tspan></text><text x="38" style="color:#000000;cursor:default;font-size:11px;fill:#000000;" text-anchor="end" transform="translate(0,0)" y="90" opacity="1"><tspan>90%</tspan></text><text x="38" style="color:#000000;cursor:default;font-size:11px;fill:#000000;" text-anchor="end" transform="translate(0,0)" y="60" opacity="1"><tspan>100%</tspan></text></g><text x="10" class="highcharts-credits" text-anchor="start" style="cursor:default;color:#000000;font-size:10px;fill:#000000;" y="400"><tspan>Quelle: Statistisches Amt Basel-Stadt, kantonale Bevölkerungsstatistik</tspan></text></svg>

<svg class="highcharts-root" xmlns="http://www.w3.org/2000/svg" width="485" height="415" font-family="arial" font-size="12">
    <defs>
        <clipPath id="a">
            <path fill="none" d="M0 0h252v309H0z"/>
        </clipPath>
    </defs>
    <rect fill="#fbfbfb" class="highcharts-background" width="485" height="415" rx="0" ry="0"/>
    <path fill="none" class="highcharts-plot-background" d="M53 55h252v309H53z"/>
    <g class="highcharts-grid highcharts-xaxis-grid">
        <path fill="none" class="highcharts-grid-line" d="M94.5 55v309m42-309v309m42-309v309m42-309v309m42-309v309m42-309v309M52.5 55v309"/>
    </g>
    <g class="highcharts-grid highcharts-yaxis-grid">
        <path fill="none" stroke="#B9CFD7" stroke-width=".5" class="highcharts-grid-line" d="M53 364.25h252m-252-31h252m-252-31h252m-252-31h252m-252-31h252m-252-30h252m-252-31h252m-252-31h252m-252-31h252m-252-31h252M53 54.75h252"/>
    </g>
    <path fill="none" class="highcharts-plot-border" d="M53 55h252v309H53z"/>
    <g class="highcharts-axis highcharts-xaxis">
        <path fill="none" class="highcharts-tick" stroke="#FFF" d="M94.5 364v10m42-10v10m42-10v10m42-10v10m42-10v10m43-10v10m-253-10v10"/>
        <path fill="none" class="highcharts-axis-line" stroke="#B9CFD7" stroke-width=".5" d="M53 364.25h252"/>
    </g>
    <g class="highcharts-axis highcharts-yaxis">
        <path fill="none" class="highcharts-axis-line" d="M53 55v309"/>
    </g>
    <g class="highcharts-series-group">
        <g class="highcharts-series highcharts-series-0 highcharts-column-series highcharts-color-undefined" transform="translate(53 55)" clip-path="url(#a)">
            <path fill="#2f656b" class="highcharts-point" d="M11 0h21v148H11zm42 0h21v150H53zm42 0h21v149H95zm42 0h21v147h-21zm42 0h21v146h-21zm42 0h21v145h-21z"/>
        </g>
        <g class="highcharts-series highcharts-series-1 highcharts-column-series highcharts-color-undefined" transform="translate(53 55)" clip-path="url(#a)">
            <path fill="#73b97c" class="highcharts-point" d="M11 148h21v128H11zm42 2h21v123H53zm42-1h21v127H95zm42-2h21v124h-21zm42-1h21v120h-21zm42-1h21v126h-21z"/>
        </g>
        <g class="highcharts-series highcharts-series-2 highcharts-column-series highcharts-color-undefined" transform="translate(53 55)" clip-path="url(#a)">
            <path fill="#cd9c00" class="highcharts-point" d="M11 276h21v34H11zm42-3h21v37H53zm42 3h21v34H95zm42-5h21v39h-21zm42-5h21v44h-21zm42 5h21v39h-21z"/>
        </g>
    </g>
    <text x="10" class="highcharts-title" y="21" color="#000" font-size="14" font-weight="700">
        <tspan>Anteile der Haushalte</tspan>
    </text>
    <text x="10" class="highcharts-subtitle" y="40" color="#000" font-weight="400">
        <tspan>nach Art des Haushalts</tspan>
    </text>
    <g class="highcharts-legend" transform="translate(317 164)">
        <rect fill="none" class="highcharts-legend-box" rx="0" ry="0" width="157" height="68"/>
        <g class="highcharts-legend-item highcharts-column-series highcharts-color-undefined highcharts-series-0">
            <text x="21" y="15" color="#333" font-weight="400" cursor="pointer" fill="#333" transform="translate(8 3)">
                <tspan>Einpersonenhaushalte</tspan>
            </text>
            <path fill="#2f656b" class="highcharts-point" d="M10 7h12v12H10z"/>
        </g>
        <g class="highcharts-legend-item highcharts-column-series highcharts-color-undefined highcharts-series-1">
            <text x="21" y="15" color="#333" font-weight="400" cursor="pointer" fill="#333" transform="translate(8 22)">
                <tspan>Familienhaushalte</tspan>
            </text>
            <path fill="#73b97c" class="highcharts-point" d="M10 26h12v12H10z"/>
        </g>
        <g class="highcharts-legend-item highcharts-column-series highcharts-color-undefined highcharts-series-2">
            <text x="21" y="15" color="#333" font-weight="400" cursor="pointer" fill="#333" transform="translate(8 41)">
                <tspan>Nichtfamilienhaushalte</tspan>
            </text>
            <path fill="#cd9c00" class="highcharts-point" d="M10 45h12v12H10z"/>
        </g>
    </g>
    <g class="highcharts-axis-labels highcharts-xaxis-labels" text-anchor="middle" color="#000" cursor="default" font-size="11">
        <text x="74" y="383">
            2011
        </text>
        <text x="116" y="383">
            2012
        </text>
        <text x="158" y="383">
            2013
        </text>
        <text x="200" y="383">
            2014
        </text>
        <text x="242" y="383">
            2015
        </text>
        <text x="284" y="383">
            2016
        </text>
    </g>
    <g class="highcharts-axis-labels highcharts-yaxis-labels" text-anchor="end" color="#000" cursor="default" font-size="11">
        <text x="38" y="369">
            <tspan>0%</tspan>
        </text>
        <text x="38" y="338">
            <tspan>10%</tspan>
        </text>
        <text x="38" y="307">
            <tspan>20%</tspan>
        </text>
        <text x="38" y="276">
            <tspan>30%</tspan>
        </text>
        <text x="38" y="245">
            <tspan>40%</tspan>
        </text>
        <text x="38" y="214">
            <tspan>50%</tspan>
        </text>
        <text x="38" y="183">
            <tspan>60%</tspan>
        </text>
        <text x="38" y="152">
            <tspan>70%</tspan>
        </text>
        <text x="38" y="121">
            <tspan>80%</tspan>
        </text>
        <text x="38" y="90">
            <tspan>90%</tspan>
        </text>
        <text x="38" y="60">
            <tspan>100%</tspan>
        </text>
    </g>
    <text x="10" class="highcharts-credits" y="400" cursor="default" color="#000" font-size="10">
        <tspan>Quelle: Statistisches Amt Basel-Stadt, kantonale Bevölkerungsstatistik</tspan>
    </text>
</svg>
